svgs/coolapk.svg

<?xml version="1.0" encoding="UTF-8" standalone="no"?>
<svg
   viewBox="0 0 192 192"
   id="vector"
   width="192"
   height="192"
   version="1.1"
   xmlns:xlink="http://www.w3.org/1999/xlink"
   xmlns="http://www.w3.org/2000/svg"
   xmlns:svg="http://www.w3.org/2000/svg">
  <defs
     id="defs6">
    <clipPath
       clipPathUnits="userSpaceOnUse"
       id="clipPath973">
      <use
         x="0"
         y="0"
         xlink:href="#g969"
         id="use975" />
    </clipPath>
  </defs>
  <g
     id="g971"
     clip-path="url(#clipPath973)"
     style="stroke-width:12;stroke-dasharray:none;fill:#000000;fill-opacity:1">
    <g
       id="g969"
       style="stroke-width:12;stroke-dasharray:none;fill:#000000;fill-opacity:1">
      <path
         id="path"
         style="fill:none;fill-opacity:1;stroke:#000000;stroke-width:12;stroke-linejoin:round;stroke-dasharray:none;stroke-opacity:1"
         d="M 58.763672,53.386719 C 29.541154,53.386719 16,77.104057 16,95.005859 c 0,31.671241 27.462747,43.605961 43.681641,43.607421 41.463949,0 64.643269,-58.831482 69.462889,-63.650389 l 15.45313,28.150389 -15.75782,-10.708983 -12.39257,9.027343 c 0,0 50.1826,37.17969 52.9375,37.17969 2.75417,0 6.61523,-3.51876 6.61523,-7.65039 0,-0.73601 -9.52173,-19.58464 -21.76172,-40.087893 -10.21744,-17.114162 -16.06638,-37.486328 -24.78711,-37.486328 -13.31124,0 -28.30611,69.619871 -70.535154,69.619141 -16.218892,0 -27.539063,-10.10004 -27.539063,-27.847657 0,-18.207982 15.452912,-26.929687 27.386719,-26.929687 17.442892,0 39.173828,18.509765 39.173828,18.509765 l 11.01172,-8.564453 c 0,0 -7.00779,-7.095668 -17.461611,-13.694116 C 82.402923,58.745462 70.715747,53.386719 58.763672,53.386719 Z" />
    </g>
  </g>
</svg>

<svg
   viewBox="0 0 192 192"
   id="vector"
   width="192"
   height="192"
   xmlns:xlink="http://www.w3.org/1999/xlink"
   xmlns="http://www.w3.org/2000/svg"
   xmlns:svg="http://www.w3.org/2000/svg">
  <defs
     id="defs6">
    <clipPath
       clipPathUnits="userSpaceOnUse"
       id="clipPath973">
      <use
         x="0"
         y="0"
         xlink:href="#g969"
         id="use975" />
    </clipPath>
  </defs>
  <g
     id="g971"
     clip-path="url(#clipPath973)"
     style="stroke-width:12;stroke-dasharray:none;fill:#000000;fill-opacity:1">
    <g
       id="g969"
       style="stroke-width:12;stroke-dasharray:none;fill:#000000;fill-opacity:1">
      <path
         id="path"
         style="stroke:#000000;stroke-width:12;stroke-dasharray:none;stroke-opacity:1;fill:#000000;stroke-linejoin:round;fill-opacity:1"
         d="M 58.763672 53.386719 C 29.541154 53.386719 16 77.104057 16 95.005859 C 16 126.6771 43.462747 138.61182 59.681641 138.61328 C 101.14559 138.61328 124.32491 79.781798 129.14453 74.962891 L 144.59766 103.11328 L 128.83984 92.404297 L 116.44727 101.43164 C 116.44727 101.43164 166.62987 138.61133 169.38477 138.61133 C 172.13894 138.61133 176 135.09257 176 130.96094 C 176 130.22493 166.47827 111.3763 154.23828 90.873047 C 144.02084 73.758885 138.1719 53.386719 129.45117 53.386719 C 116.13993 53.386719 101.14506 123.00659 58.916016 123.00586 C 42.697124 123.00586 31.376953 112.90582 31.376953 95.158203 C 31.376953 76.950221 46.829865 68.228516 58.763672 68.228516 C 76.206564 68.228516 97.9375 86.738281 97.9375 86.738281 L 108.94922 78.173828 C 108.94922 78.173828 84.469096 53.386719 58.763672 53.386719 z " />
    </g>
  </g>
</svg>
